file/publix.svg

<svg clip-rule="evenodd" fill-rule="evenodd" stroke-linejoin="round" stroke-miterlimit="1.41421" viewBox="0 0 560 400" xmlns="http://www.w3.org/2000/svg"><path d="m1230.3-504.2h2.5v-14h-2.5zm7.6 0h2.5v-10.4h-2.5zm11.3-2.8c-.8 1.6-1.5 2.9-1.5 2.9h-2.6l2.7-5.3-3.1-5.1h2.7l1.6 2.7 1.4-2.7h2.7s-1.3 2.6-2.6 5.2l3.2 5.3h-2.6zm-48.1-1.7v-5.9h2.4c.1 1.9 0 4.1 0 5.9 0 1.2 1 2.3 2.3 2.3s2.3-.9 2.3-2.2v-6.1h2.4v6c0 2.6-2.1 4.7-4.7 4.7-2.6.1-4.7-2.1-4.7-4.7m19.2 2.3c1.6 0 2.9-1.3 2.9-2.9s-1.3-2.9-2.9-2.9-2.9 1.3-2.9 2.9 1.3 2.9 2.9 2.9m0-8.4c3 0 5.5 2.5 5.5 5.5s-2.5 5.5-5.5 5.5-5.5-2.6-5.5-5.7v-8.7h2.5v4.4c.9-.6 1.9-1 3-1m-28.7 4.6c1.6 0 2.9-1.3 2.9-2.9s-1.3-2.9-2.9-2.9-2.9 1.3-2.9 2.9 1.3 2.9 2.9 2.9m0-8.4c3 0 5.5 2.5 5.5 5.5s-2.5 5.5-5.5 5.5c-1.1 0-2.1-.3-3-.8v4.2h-2.5v-9c0-3 2.5-5.4 5.5-5.4m65 13.3c.1 0 .3 0 .3-.2 0-.1-.1-.2-.3-.2h-.2v.4zm-.3.7h-.2v-1.2h.5c.3 0 .4.1.4.4 0 .2-.1.3-.3.3l.3.5h-.2l-.3-.5h-.2zm-.6-.6c0 .5.4.9.9.9s.8-.4.8-.9-.4-.9-.8-.9c-.5 0-.9.4-.9.9m-.2 0c0-.6.5-1.1 1.1-1.1s1.1.4 1.1 1.1c0 .6-.5 1.1-1.1 1.1s-1.1-.5-1.1-1.1m-16.2-10.5c.9 0 1.6-.7 1.6-1.6s-.7-1.6-1.6-1.6-1.6.7-1.6 1.6.7 1.6 1.6 1.6" fill="#3e902d" fill-rule="nonzero" transform="matrix(5.96026 0 0 5.96026 -7002.85 3247.78)"/></svg>

<?xml version="1.0" encoding="UTF-8" standalone="no"?>
<!DOCTYPE svg PUBLIC "-//W3C//DTD SVG 1.1//EN" "http://www.w3.org/Graphics/SVG/1.1/DTD/svg11.dtd">
<svg width="100%" height="100%" viewBox="0 0 560 400" version="1.1" xmlns="http://www.w3.org/2000/svg" xmlns:xlink="http://www.w3.org/1999/xlink" xml:space="preserve" xmlns:serif="http://www.serif.com/" style="fill-rule:evenodd;clip-rule:evenodd;stroke-linejoin:round;stroke-miterlimit:1.41421;">
    <g id="logo" transform="matrix(5.96026,0,0,5.96026,-7002.85,3247.78)">
        <path d="M1230.3,-504.2L1232.8,-504.2L1232.8,-518.2L1230.3,-518.2L1230.3,-504.2ZM1237.9,-504.2L1240.4,-504.2L1240.4,-514.6L1237.9,-514.6L1237.9,-504.2ZM1249.2,-507C1248.4,-505.4 1247.7,-504.1 1247.7,-504.1L1245.1,-504.1L1247.8,-509.4L1244.7,-514.5L1247.4,-514.5L1249,-511.8L1250.4,-514.5L1253.1,-514.5C1253.1,-514.5 1251.8,-511.9 1250.5,-509.3L1253.7,-504L1251.1,-504L1249.2,-507M1201.1,-508.7L1201.1,-514.6L1203.5,-514.6C1203.6,-512.7 1203.5,-510.5 1203.5,-508.7C1203.5,-507.5 1204.5,-506.4 1205.8,-506.4C1207.1,-506.4 1208.1,-507.3 1208.1,-508.6L1208.1,-514.7L1210.5,-514.7L1210.5,-508.7C1210.5,-506.1 1208.4,-504 1205.8,-504C1203.2,-503.9 1201.1,-506.1 1201.1,-508.7M1220.3,-506.4C1221.9,-506.4 1223.2,-507.7 1223.2,-509.3C1223.2,-510.9 1221.9,-512.2 1220.3,-512.2C1218.7,-512.2 1217.4,-510.9 1217.4,-509.3C1217.4,-507.7 1218.7,-506.4 1220.3,-506.4M1220.3,-514.8C1223.3,-514.8 1225.8,-512.3 1225.8,-509.3C1225.8,-506.3 1223.3,-503.8 1220.3,-503.8C1217.3,-503.8 1214.8,-506.4 1214.8,-509.5L1214.8,-518.2L1217.3,-518.2L1217.3,-513.8C1218.2,-514.4 1219.2,-514.8 1220.3,-514.8M1191.6,-510.2C1193.2,-510.2 1194.5,-511.5 1194.5,-513.1C1194.5,-514.7 1193.2,-516 1191.6,-516C1190,-516 1188.7,-514.7 1188.7,-513.1C1188.7,-511.5 1190,-510.2 1191.6,-510.2M1191.6,-518.6C1194.6,-518.6 1197.1,-516.1 1197.1,-513.1C1197.1,-510.1 1194.6,-507.6 1191.6,-507.6C1190.5,-507.6 1189.5,-507.9 1188.6,-508.4L1188.6,-504.2L1186.1,-504.2L1186.1,-513.2C1186.1,-516.2 1188.6,-518.6 1191.6,-518.6M1256.6,-505.3C1256.7,-505.3 1256.9,-505.3 1256.9,-505.5C1256.9,-505.6 1256.8,-505.7 1256.6,-505.7L1256.4,-505.7L1256.4,-505.3L1256.6,-505.3ZM1256.3,-504.6L1256.1,-504.6L1256.1,-505.8L1256.6,-505.8C1256.9,-505.8 1257,-505.7 1257,-505.4C1257,-505.2 1256.9,-505.1 1256.7,-505.1L1257,-504.6L1256.8,-504.6L1256.5,-505.1L1256.3,-505.1L1256.3,-504.6ZM1255.7,-505.2C1255.7,-504.7 1256.1,-504.3 1256.6,-504.3C1257.1,-504.3 1257.4,-504.7 1257.4,-505.2C1257.4,-505.7 1257,-506.1 1256.6,-506.1C1256.1,-506.1 1255.7,-505.7 1255.7,-505.2M1255.5,-505.2C1255.5,-505.8 1256,-506.3 1256.6,-506.3C1257.2,-506.3 1257.7,-505.9 1257.7,-505.2C1257.7,-504.6 1257.2,-504.1 1256.6,-504.1C1256,-504.1 1255.5,-504.6 1255.5,-505.2M1239.3,-515.7C1240.2,-515.7 1240.9,-516.4 1240.9,-517.3C1240.9,-518.2 1240.2,-518.9 1239.3,-518.9C1238.4,-518.9 1237.7,-518.2 1237.7,-517.3C1237.7,-516.4 1238.4,-515.7 1239.3,-515.7" style="fill:rgb(62,144,45);fill-rule:nonzero;"/>
    </g>
</svg>
